X:1
T:Jurassic Park Theme
T:Jurassic Park Theme
T:for Brass
T:John Williams
T:John Williams
C:John Williams
Z:John Williams
%%score 1 2
L:1/8
Q:1/4=60
M:4/4
K:Bb
V:1 treble transpose=-7 nm="Horn in F" snm="F Hn."
V:2 bass nm="Euphonium" snm="Euph."
V:1
[K:F] F3 F/E/ F3 F/E/ | F>G G>B B3 A/F/ | G>E CA/F/ G3 c/F/ |[M:6/4] B>A A>G G4 G4 | %4
[M:4/4] F3 F/E/ F3 F/E/ | F>G G>B B3 A/F/ | G>E CA/F/ G3 c/F/ | B>A A>G G3 f/e/ | %8
 fc Bf/e/ fc Bf/e/ | e<f cF ^d3 f/e/ | fc Bf/e/ fc Bf/e/ | fc/=B/ c2 c3 f/e/ | (f4 f4) | C4 F4 | %14
 C4 C3 C | G2 GF G3 A | F>A A>G G4 | F2 E2 C2 A,2 | F2 FE F2 G>G | G3 E G2 EG | G3 A A>A A>G | %21
 G2 C2 A2 B2 | A2 B2 A2 cc | ^d2 d2 cc B2 | cc B2 f3 f | (f8 | f4) z4 |] %27
V:2
 B,,4 F,,4 | D,>E, E,>F, F,3 B,, | C,2 C,B,, C,3 D, |[M:6/4] G,>B, B,>A, A,4 G,2 F,2 | %4
[M:4/4] D,2 D,2 E,2 E,E, | F,2 A,>B, B,3 B, | A,2 F,B, A,3 B, | B,>B, B,>A, A,2 F,,2 | %8
 D,2 E,2 D,2 E,2 | D,2 F,F, _A,2 A,2 | F,F, E,2 F,F, E,2 | B,3 B, B,4 | (B,4 C4) | %13
 B,,3 B,,/A,,/ B,,3 B,,/A,,/ | B,,>C, C,>E, E,3 D,/B,,/ | C,>A,, F,,D,/B,,/ C,3 F,/B,,/ | %16
 E,>D, D,>C, C,4 | C,4 B,,3 B,,/A,,/ | B,,3 B,,/A,,/ B,,>C, C,>E, | E,3 D,/B,,/ C,>A,, F,,D,/B,,/ | %20
 C,3 F,/B,,/ E,>D, D,>C, | C,3 B,/A,/ B,F, E,B,/A,/ | B,F, E,B,/A,/ A,<B, F,B,, | %23
 ^G,3 B,/A,/ B,F, E,B,/A,/ | B,F, E,B,/A,/ B,F,/=E,/ F,2 | F,3 B,/A,/ (B,4 | B,4) z4 |] %27

